X:513
T:She's as False as She's Fair
M:6/8
L:1/8
B:O'Neill's 513
N:"Gaily" "collected  by F. O'Neill
Z:Transcribed by Dave Wooldridge
K:Gm
(B/2c/2) \
|ded c2 B|ABG F2 D|GAB dcAF|G3 G2 :|
(B/2c/2) \
|d2 b ba2 g|fdg f2 d|BcB fed|cdB A z F|
BAB cBc|d2 G HF2 D|GAB dcAF|G3 G2||
